public/assets/images/icon/wcuIcon1_1.svg

<svg width="80" height="80" viewBox="0 0 80 80" fill="none" xmlns="http://www.w3.org/2000/svg">
<rect opacity="0.2" x="0.5" y="0.5" width="79" height="79" rx="9.5" stroke="#7444FD"/>
<path opacity="0.898" fill-rule="evenodd" clip-rule="evenodd" d="M43.458 15C43.8517 15.0943 44.2256 15.2468 44.5796 15.4573C47.6987 17.2405 50.8426 18.9851 54.0111 20.6911C54.0694 27.7201 54.1204 34.7493 54.164 41.7784C54.1793 44.5779 54.1283 47.3726 54.0111 50.1626C53.6794 51.282 53.0166 52.1458 52.0228 52.754C44.9154 56.8719 37.778 60.937 30.6107 64.9492C30.3388 65.0169 30.0669 65.0169 29.795 64.9492C28.4562 64.2311 27.1307 63.4858 25.8185 62.7134C25.475 62.473 25.254 62.1512 25.1557 61.7479C25.0827 53.8382 25.0317 45.9283 25.0028 38.0183C24.9871 34.3043 25.0381 30.5949 25.1557 26.8902C25.5158 25.9176 26.1106 25.1215 26.9401 24.502C32.4691 21.3576 37.975 18.1903 43.458 15ZM43.458 16.2195C44.3471 16.6121 45.1968 17.0864 46.007 17.6423C40.8403 20.6916 35.6402 23.6895 30.4068 26.6362C29.4087 27.3882 28.8139 28.3876 28.6224 29.6341C28.6054 31.3956 28.5885 33.1572 28.5715 34.9187C28.6747 44.302 28.6917 53.6854 28.6224 63.0691C27.9849 62.6411 27.3221 62.2515 26.6342 61.9004C26.4812 61.8157 26.3622 61.6971 26.2773 61.5447C26.177 54.6515 26.126 47.7578 26.1244 40.8638C26.1084 36.2692 26.1593 31.6791 26.2773 27.0935C26.5487 26.4168 26.9736 25.8578 27.5518 25.4167C32.877 22.3739 38.1791 19.3082 43.458 16.2195ZM47.7404 18.5569C49.2833 19.3428 50.8127 20.1558 52.3287 20.9959C50.8246 21.8895 49.3121 22.7703 47.7914 23.6382C47.7404 21.9448 47.7234 20.251 47.7404 18.5569ZM46.4149 18.6585C46.6007 20.3493 46.6857 22.0769 46.6698 23.8415C46.7413 24.6148 47.166 24.9366 47.9443 24.8069C49.601 23.8882 51.2494 22.9566 52.8895 22.0122C53.005 26.8378 53.056 31.665 53.0424 36.4939C53.0583 41.0208 53.0074 45.5432 52.8895 50.061C52.5829 50.807 52.0901 51.3998 51.411 51.8394C44.4269 55.8111 37.4595 59.8083 30.5087 63.8313C30.2 63.9471 29.979 63.8624 29.846 63.5772C29.7025 52.2292 29.6686 40.8811 29.744 29.5325C29.9997 28.6684 30.4925 27.974 31.2225 27.4492C36.3264 24.5676 41.3906 21.6374 46.4149 18.6585ZM37.2383 28.8211C37.374 29.6143 37.442 30.4443 37.4422 31.311C37.4252 32.1409 37.4082 32.9708 37.3912 33.8008C35.9298 34.6477 34.4682 35.4946 33.0068 36.3415C32.9219 34.6466 32.9389 32.9529 33.0578 31.2602C34.4745 30.4701 35.868 29.6571 37.2383 28.8211ZM37.3402 39.4919C37.4755 41.1692 37.4755 42.8629 37.3402 44.5732C35.9042 45.4328 34.4597 46.2798 33.0068 47.1138C32.9388 45.42 32.9388 43.7263 33.0068 42.0325C34.4686 41.1995 35.9131 40.3526 37.3402 39.4919ZM37.2383 50.2642C37.374 51.0574 37.442 51.8874 37.4422 52.754C37.4252 53.584 37.4082 54.4139 37.3912 55.2439C35.9719 56.1292 34.5274 56.9761 33.0578 57.7845C32.9389 56.1257 32.9219 54.4658 33.0068 52.8049C34.4492 51.9937 35.8596 51.1468 37.2383 50.2642Z" fill="#7444FD"/>
<path opacity="0.874" fill-rule="evenodd" clip-rule="evenodd" d="M45.2933 25.0606C45.9561 24.9589 46.211 25.2298 46.058 25.8736C44.4516 26.9031 42.8032 27.8685 41.1128 28.77C40.4501 28.9224 40.1952 28.6683 40.3481 28.0078C40.4331 27.9231 40.5181 27.8384 40.603 27.7537C42.1895 26.8789 43.753 25.9813 45.2933 25.0606Z" fill="#7444FD"/>
<path opacity="0.92" fill-rule="evenodd" clip-rule="evenodd" d="M37.6461 27.2968C37.9382 27.2516 38.1931 27.3193 38.4108 27.5C38.4788 29.8036 38.4788 32.107 38.4108 34.4106C36.4772 35.6538 34.4889 36.8055 32.446 37.8659C32.2994 37.8436 32.1635 37.7928 32.0382 37.7134C31.9674 35.568 31.8994 33.4169 31.8342 31.2602C31.8538 31.0491 31.9048 30.8459 31.9872 30.6504C33.8715 29.5171 35.7578 28.3992 37.6461 27.2968ZM37.2382 28.8212C35.868 29.6571 34.4744 30.4701 33.0578 31.2602C32.9389 32.953 32.9219 34.6467 33.0068 36.3415C34.4682 35.4946 35.9298 34.6477 37.3912 33.8008C37.4082 32.9709 37.4251 32.141 37.4422 31.311C37.442 30.4443 37.3739 29.6144 37.2382 28.8212Z" fill="#7444FD"/>
<path opacity="0.876" fill-rule="evenodd" clip-rule="evenodd" d="M45.2933 28.5164C45.956 28.4147 46.2109 28.6856 46.058 29.3294C44.4019 30.3355 42.7195 31.301 41.0108 32.2258C40.3989 32.3267 40.178 32.0726 40.3481 31.4636C40.3795 31.3815 40.4305 31.3137 40.501 31.2603C42.1215 30.3687 43.7189 29.454 45.2933 28.5164Z" fill="#7444FD"/>
<path opacity="0.874" fill-rule="evenodd" clip-rule="evenodd" d="M50.0855 33.394C50.8802 33.4705 51.0502 33.8262 50.5954 34.4611C47.3452 36.3009 44.0824 38.1132 40.807 39.8981C40.4532 39.8501 40.2832 39.6469 40.2972 39.2883C40.2859 39.0979 40.3538 38.9455 40.5011 38.831C43.7188 37.0416 46.9137 35.2293 50.0855 33.394Z" fill="#7444FD"/>
<path opacity="0.921" fill-rule="evenodd" clip-rule="evenodd" d="M37.85 37.9675C38.0722 38.0021 38.2591 38.1037 38.4108 38.2724C38.4788 40.576 38.4788 42.8794 38.4108 45.183C36.5496 46.3224 34.6633 47.4233 32.7519 48.4858C32.4616 48.5818 32.2067 48.5309 31.9872 48.3334C31.9662 46.2146 31.9152 44.0974 31.8342 41.9818C31.8385 41.7819 31.8895 41.5955 31.9872 41.4228C33.9092 40.203 35.8635 39.0513 37.85 37.9675ZM37.3402 39.4919C35.913 40.3527 34.4685 41.1995 33.0068 42.0326C32.9388 43.7264 32.9388 45.4201 33.0068 47.1139C34.4597 46.2798 35.9042 45.4329 37.3402 44.5732C37.4755 42.863 37.4755 41.1693 37.3402 39.4919Z" fill="#7444FD"/>
<path opacity="0.876" fill-rule="evenodd" clip-rule="evenodd" d="M45.7012 39.2884C46.5276 39.1928 46.7654 39.5147 46.4149 40.2538C44.6476 41.2362 42.8802 42.2186 41.1128 43.201C40.2971 43.3026 40.0932 42.9977 40.5011 42.2863C42.2517 41.3009 43.985 40.3016 45.7012 39.2884Z" fill="#7444FD"/>
<path opacity="0.878" fill-rule="evenodd" clip-rule="evenodd" d="M50.0855 43.5569C50.7597 43.5473 50.9805 43.8522 50.7482 44.4715C47.7486 46.1951 44.7407 47.9057 41.7246 49.6036C41.4393 49.7798 41.1334 49.8984 40.8069 49.9593C40.3327 49.8889 40.1797 49.6179 40.3481 49.1463C43.5919 47.2675 46.8378 45.4044 50.0855 43.5569Z" fill="#7444FD"/>
<path opacity="0.919" fill-rule="evenodd" clip-rule="evenodd" d="M37.748 48.7401C37.9964 48.7215 38.2174 48.7893 38.4108 48.9433C38.4788 51.2807 38.4788 53.6181 38.4108 55.9555C36.5161 57.0436 34.6298 58.1446 32.7519 59.2584C32.4616 59.3543 32.2067 59.3035 31.9872 59.1059C31.9668 56.97 31.9158 54.8359 31.8342 52.7035C31.8538 52.4924 31.9048 52.2891 31.9872 52.0937C33.9222 50.986 35.8426 49.8681 37.748 48.7401ZM37.2382 50.2645C35.8596 51.1471 34.4492 51.9939 33.0068 52.8051C32.9219 54.4661 32.9389 56.1259 33.0578 57.7848C34.5274 56.9763 35.9719 56.1295 37.3912 55.2441C37.4082 54.4141 37.4251 53.5843 37.4422 52.7543C37.442 51.8876 37.3739 51.0576 37.2382 50.2645Z" fill="#7444FD"/>
<path opacity="0.873" fill-rule="evenodd" clip-rule="evenodd" d="M45.9051 49.3499C46.4411 49.369 46.662 49.64 46.5678 50.1629C46.4829 50.2475 46.3979 50.3323 46.3129 50.4169C44.5796 51.3993 42.8462 52.3817 41.1128 53.3641C40.4501 53.5165 40.1952 53.2625 40.3481 52.6019C42.1817 51.4768 44.0341 50.3927 45.9051 49.3499Z" fill="#7444FD"/>
</svg>

<?xml version="1.0" encoding="UTF-8"?>
<svg id="Capa_1" xmlns="http://www.w3.org/2000/svg" version="1.1" viewBox="0 0 80 80">
  <!-- Generator: Adobe Illustrator 29.8.1, SVG Export Plug-In . SVG Version: 2.1.1 Build 2)  -->
  <defs>
    <style>
      .st0 {
        fill: none;
        opacity: .74;
        stroke: #129689;
      }

      .st0, .st1, .st2, .st3, .st4, .st5 {
        isolation: isolate;
      }

      .st1 {
        opacity: .87;
      }

      .st1, .st2, .st3, .st4, .st5 {
        fill: #129689;
        fill-rule: evenodd;
      }

      .st2 {
        opacity: .88;
      }

      .st3 {
        opacity: .87;
      }

      .st4 {
        opacity: .88;
      }

      .st5 {
        opacity: .92;
      }
    </style>
  </defs>
  <rect class="st0" x=".5" y=".5" width="79" height="79" rx="9.5" ry="9.5"/>
  <path class="st3" d="M45.29,25.06c.66-.1.92.17.76.81-1.61,1.03-3.25,1.99-4.95,2.9-.66.15-.92-.1-.76-.76.09-.08.17-.17.25-.25,1.59-.87,3.15-1.77,4.69-2.69Z"/>
  <path class="st4" d="M45.29,28.52c.66-.1.92.17.76.81-1.66,1.01-3.34,1.97-5.05,2.9-.61.1-.83-.15-.66-.76.03-.08.08-.15.15-.2,1.62-.89,3.22-1.81,4.79-2.74Z"/>
  <path class="st3" d="M50.09,33.39c.79.08.96.43.51,1.07-3.25,1.84-6.51,3.65-9.79,5.44-.35-.05-.52-.25-.51-.61-.01-.19.06-.34.2-.46,3.22-1.79,6.41-3.6,9.58-5.44Z"/>
  <path class="st4" d="M45.7,39.29c.83-.1,1.06.23.71.97-1.77.98-3.53,1.96-5.3,2.95-.82.1-1.02-.2-.61-.91,1.75-.99,3.48-1.98,5.2-3Z"/>
  <path class="st2" d="M50.09,43.56c.67,0,.9.3.66.91-3,1.72-6.01,3.43-9.02,5.13-.29.18-.59.29-.92.36-.47-.07-.63-.34-.46-.81,3.24-1.88,6.49-3.74,9.74-5.59Z"/>
  <g>
    <path class="st5" d="M54.01,20.69c-3.17-1.71-6.31-3.45-9.43-5.23-.35-.21-.73-.36-1.12-.46-5.48,3.19-10.99,6.36-16.52,9.5-.83.62-1.42,1.42-1.78,2.39-.12,3.7-.17,7.41-.15,11.13.03,7.91.08,15.82.15,23.73.1.4.32.73.66.97,1.31.77,2.64,1.52,3.98,2.24.27.07.54.07.82,0,7.17-4.01,14.3-8.08,21.41-12.2.99-.61,1.66-1.47,1.99-2.59.12-2.79.17-5.58.15-8.38-.04-7.03-.09-14.06-.15-21.09ZM52.33,21c-1.5.89-3.02,1.77-4.54,2.64-.05-1.69-.07-3.39-.05-5.08,1.54.79,3.07,1.6,4.59,2.44ZM28.62,63.07c-.64-.43-1.3-.82-1.99-1.17-.15-.08-.27-.2-.36-.36-.1-6.89-.15-13.79-.15-20.68-.02-4.59.03-9.18.15-13.77.27-.68.7-1.24,1.27-1.68,5.33-3.04,10.63-6.11,15.91-9.2.89.39,1.74.87,2.55,1.42-5.17,3.05-10.37,6.05-15.6,8.99-1,.75-1.59,1.75-1.78,3-.02,1.76-.03,3.52-.05,5.28.1,9.38.12,18.77.05,28.15ZM52.89,50.06c-.31.75-.8,1.34-1.48,1.78-6.98,3.97-13.95,7.97-20.9,11.99-.31.12-.53.03-.66-.25-.14-11.35-.18-22.7-.1-34.04.26-.86.75-1.56,1.48-2.08,5.1-2.88,10.17-5.81,15.19-8.79.19,1.69.27,3.42.25,5.18.07.77.5,1.1,1.27.97,1.66-.92,3.31-1.85,4.95-2.79.12,4.83.17,9.65.15,14.48.02,4.53-.04,9.05-.15,13.57Z"/>
    <path class="st5" d="M37.65,27.3c-1.89,1.1-3.77,2.22-5.66,3.35-.08.2-.13.4-.15.61.07,2.16.13,4.31.2,6.45.13.08.26.13.41.15,2.04-1.06,4.03-2.21,5.96-3.46.07-2.3.07-4.61,0-6.91-.22-.18-.47-.25-.76-.2ZM32.96,33.8c0,.85,0,1.69.05,2.54-.04-.85-.06-1.69-.05-2.54Z"/>
    <path class="st5" d="M37.85,37.97c-1.99,1.08-3.94,2.24-5.86,3.46-.1.17-.15.36-.15.56.08,2.12.13,4.23.15,6.35.22.2.47.25.76.15,1.91-1.06,3.8-2.16,5.66-3.3.07-2.3.07-4.61,0-6.91-.15-.17-.34-.27-.56-.3ZM37.34,44.57c-1.44.86-2.88,1.71-4.33,2.54-.03-.85-.05-1.69-.05-2.54,0,.85.02,1.69.05,2.54,1.45-.83,2.9-1.68,4.33-2.54.07-.86.1-1.71.1-2.55,0,.85-.03,1.7-.1,2.55Z"/>
    <path class="st5" d="M37.75,48.74c-1.91,1.13-3.83,2.25-5.76,3.35-.08.2-.13.4-.15.61.08,2.13.13,4.27.15,6.4.22.2.47.25.76.15,1.88-1.11,3.76-2.21,5.66-3.3.07-2.34.07-4.67,0-7.01-.19-.15-.41-.22-.66-.2ZM37.39,55.24c-1.42.89-2.86,1.73-4.33,2.54-.06-.83-.09-1.66-.1-2.49,0,.83.04,1.66.1,2.49,1.47-.81,2.91-1.66,4.33-2.54.02-.83.03-1.66.05-2.49h0c-.02.83-.03,1.66-.05,2.49Z"/>
  </g>
  <path class="st1" d="M45.91,49.35c.54.02.76.29.66.81-.08.08-.17.17-.25.25-1.73.98-3.47,1.96-5.2,2.95-.66.15-.92-.1-.76-.76,1.83-1.13,3.69-2.21,5.56-3.25Z"/>
</svg>
